dist/img/stage-decor.svg

<svg xmlns="http://www.w3.org/2000/svg" fill="none" viewBox="0 0 948 224"><path fill="#1B1B1B" d="M767.547 208.636l-1.024-11.393-6.085 1.63-1.885-7.031 7.303-1.957-1.192-12.291-6.761 1.812-1.885-7.032 7.979-2.138-1.019-11.104 7.235-1.939 1.019 11.105 11.089-2.971-1.087-11.087 7.235-1.938 1.019 11.104 6.017-1.612 1.885 7.032-7.235 1.938 1.191 12.291 6.762-1.812 1.884 7.032-7.978 2.138 1.023 11.393-7.234 1.939-1.024-11.394-11.089 2.971 1.091 11.376-7.234 1.938zm5.476-20.672l11.089-2.971-1.124-12.308-11.089 2.971 1.124 12.308zm41.123 8.186l-12.682-47.331 21.231-5.688c5.454-1.462 9.953-1.17 13.497.876 2.686 1.551 4.458 3.927 5.316 7.127 1.256 4.688-.056 8.808-3.935 12.36 6.833.44 11.004 3.477 12.514 9.111 1.111 4.147.391 7.771-2.16 10.87-2.552 3.099-6.509 5.368-11.873 6.805l-21.908 5.87zm.844-29.576l11.359-3.044c2.75-.737 4.769-1.858 6.057-3.362 1.32-1.562 1.691-3.425 1.111-5.588-.507-1.893-1.621-3.165-3.341-3.815-1.732-.696-3.928-.687-6.588.026l-11.968 3.206 3.37 12.577zm5.363 20.014l13.793-3.696c2.885-.773 4.966-1.935 6.241-3.484 1.321-1.562 1.692-3.425 1.112-5.588-1.135-4.238-4.949-5.487-11.44-3.747l-13.185 3.533 3.479 12.982zm54.148-5.813c-3.967 1.063-7.409.657-10.327-1.219-2.918-1.875-4.939-4.909-6.062-9.101l-6.088-22.718 8.182-2.193 5.435 20.285c.749 2.795 1.982 4.783 3.7 5.966 1.751 1.125 3.843 1.361 6.278.709 2.389-.64 4.116-1.948 5.18-3.925 1.065-1.976 1.229-4.339.492-7.089l-5.399-20.149 8.182-2.192 9.566 35.701-8.182 2.192-1.485-5.545c-1.717 4.953-4.874 8.046-9.472 9.278zm48.249-1.985c-5.951 1.594-11.65 1.599-17.099.016l1.394-6.969c4.733 1.438 9.309 1.565 13.726.381 3.651-.978 6.193-2.674 7.624-5.087 1.443-2.367 1.687-5.331.733-8.892l-.743-2.773c-2.209 5.279-5.815 8.588-10.819 9.929-4.417 1.184-8.637.672-12.659-1.536s-6.715-5.858-8.08-10.952c-1.352-5.049-.839-9.534 1.54-13.457 2.424-3.935 5.822-6.488 10.195-7.66 4.958-1.328 9.671-.417 14.139 2.734l-1.431-5.342 8.181-2.192 7.609 28.398c1.595 5.951 1.287 10.84-.924 14.67-2.343 4.058-6.805 6.968-13.386 8.732zm-4.868-20.872c2.885-.773 5.094-2.355 6.627-4.747 1.566-2.448 1.963-5.115 1.19-8-.773-2.885-2.444-4.974-5.013-6.266-2.523-1.305-5.228-1.571-8.113-.798-2.884.773-5.048 2.344-6.492 4.711-1.455 2.322-1.784 4.971-.987 7.946.773 2.885 2.377 4.992 4.81 6.321 2.479 1.316 5.138 1.594 7.978.833z"/><path stroke="#1B1B1B" d="M1 98.596c232 84 326-67 251.5-87.503-74.5-20.504-84 127.001 46 158.502C428.5 201.096 624 24.91 550 2.596c-74-22.313-108.5 250.5 340.5 166.999"/></svg>

<svg width="948" height="224" viewBox="0 0 948 224" fill="none" xmlns="http://www.w3.org/2000/svg">
<path d="M767.547 208.636L766.523 197.243L760.438 198.873L758.553 191.842L765.856 189.885L764.664 177.594L757.903 179.406L756.018 172.374L763.997 170.236L762.978 159.132L770.213 157.193L771.232 168.298L782.321 165.327L781.234 154.24L788.469 152.302L789.488 163.406L795.505 161.794L797.39 168.826L790.155 170.764L791.346 183.055L798.108 181.243L799.992 188.275L792.014 190.413L793.037 201.806L785.803 203.745L784.779 192.351L773.69 195.322L774.781 206.698L767.547 208.636ZM773.023 187.964L784.112 184.993L782.988 172.685L771.899 175.656L773.023 187.964ZM814.146 196.15L801.464 148.819L822.695 143.131C828.149 141.669 832.648 141.961 836.192 144.007C838.878 145.558 840.65 147.934 841.508 151.134C842.764 155.822 841.452 159.942 837.573 163.494C844.406 163.934 848.577 166.971 850.087 172.605C851.198 176.752 850.478 180.376 847.927 183.475C845.375 186.574 841.418 188.843 836.054 190.28L814.146 196.15ZM814.99 166.574L826.349 163.53C829.099 162.793 831.118 161.672 832.406 160.168C833.726 158.606 834.097 156.743 833.517 154.58C833.01 152.687 831.896 151.415 830.176 150.765C828.444 150.069 826.248 150.078 823.588 150.791L811.62 153.997L814.99 166.574ZM820.353 186.588L834.146 182.892C837.031 182.119 839.112 180.957 840.387 179.408C841.708 177.846 842.079 175.983 841.499 173.82C840.364 169.582 836.55 168.333 830.059 170.073L816.874 173.606L820.353 186.588ZM874.501 180.775C870.534 181.838 867.092 181.432 864.174 179.556C861.256 177.681 859.235 174.647 858.112 170.455L852.024 147.737L860.206 145.544L865.641 165.829C866.39 168.624 867.623 170.612 869.341 171.795C871.092 172.92 873.184 173.156 875.619 172.504C878.008 171.864 879.735 170.556 880.799 168.579C881.864 166.603 882.028 164.24 881.291 161.49L875.892 141.341L884.074 139.149L893.64 174.85L885.458 177.042L883.973 171.497C882.256 176.45 879.099 179.543 874.501 180.775ZM922.75 178.79C916.799 180.384 911.1 180.389 905.651 178.806L907.045 171.837C911.778 173.275 916.354 173.402 920.771 172.218C924.422 171.24 926.964 169.544 928.395 167.131C929.838 164.764 930.082 161.8 929.128 158.239L928.385 155.466C926.176 160.745 922.57 164.054 917.566 165.395C913.149 166.579 908.929 166.067 904.907 163.859C900.885 161.651 898.192 158.001 896.827 152.907C895.475 147.858 895.988 143.373 898.367 139.45C900.791 135.515 904.189 132.962 908.562 131.79C913.52 130.462 918.233 131.373 922.701 134.524L921.27 129.182L929.451 126.99L937.06 155.388C938.655 161.339 938.347 166.228 936.136 170.058C933.793 174.116 929.331 177.026 922.75 178.79ZM917.882 157.918C920.767 157.145 922.976 155.563 924.509 153.171C926.075 150.723 926.472 148.056 925.699 145.171C924.926 142.286 923.255 140.197 920.686 138.905C918.163 137.6 915.458 137.334 912.573 138.107C909.689 138.88 907.525 140.451 906.081 142.818C904.626 145.14 904.297 147.789 905.094 150.764C905.867 153.649 907.471 155.756 909.904 157.085C912.383 158.401 915.042 158.679 917.882 157.918Z" fill="#1B1B1B"/>
<path d="M1 98.5961C233 182.596 327 31.5962 252.5 11.0926C178 -9.41096 168.5 138.094 298.5 169.595C428.5 201.096 624 24.9097 550 2.59633C476 -19.717 441.5 253.096 890.5 169.595" stroke="#1B1B1B"/>
</svg>
